!!! OTL: Berkowitz362
!!! Chapter: 1
!!! Section: III
!!! Page: 89
!!! Mode: 
!!! Encoder: DJB
**kern
*staff1
*I"Piano
=1-
*clefG2
*k[f#c#]
*D:
*M2/4
8A/L
16B/L
16c#/JJ
16d/LL
16e/
16f#/
16g/JJ
=2
16a/LL
16d/
16e/
16f#/JJ
16g/LL
16a/
16b/
16cc#/JJ
=3
16dd\LL
16cc#\
16ee\
16g\JJ
16g/LL
16f#/
16dd/
16f#/JJ
=4
16f#/LL
16e/
16g/
16b/JJ
8d/L
8c#/J
=5
16r
16B/LL
16c#/
16d#/JJ
16e/LL
16f#/
16g/
16a/JJ
=6
!!linebreak:original
16b/LL
16e/
16f#/
16g/JJ
16a\LL
16b\
16cc#\
16dd\JJ
=7
16ee\LL
16dd#\
16ee\
16ddn\JJ
16cc#\LL
16b#\
16cc#\
16bn\JJ
=8
16a/LL
16g#/
16a/
16gn/JJ
8f#/L
8dd/J
=9
8e/L
[8b/J
16b/LL]
16g/
16e/
16c#/JJ
=10
8d/L
16e/L
16f#/JJ
16g/LL
16a/
16b/
16cc#/JJ
=11
4dd\
4r
==
*-
